archdroid-icon-theme/Archdroid-Teal/mimetypes/scalable/application-pgp-keys.svg

<svg fill="#009688" height="48" viewBox="0 0 48 48" width="48" xmlns="http://www.w3.org/2000/svg"><path d="m12 6c-.93 0-1.760547.429844-2.310547 1.089844l-2.769531 3.359375c-.58.7-.919922 1.580781-.919922 2.550781v25c0 2.21 1.79 4 4 4h28c2.21 0 4-1.79 4-4v-25c0-.97-.340156-1.850781-.910156-2.550781l-2.769532-3.359375c-.56-.66-1.390312-1.089844-2.320312-1.089844zm12 10.5c2.76 0 5 2.239999 5 5v2h1c1.105 0 2 .895 2 2v10c0 1.105-.895 2-2 2h-12c-1.105 0-2-.895-2-2v-10c0-1.105.895-2 2-2h1v-2c0-2.760001 2.24-5 5-5z" fill="#009688"/><path d="m10.25 10 1.63-2h24l1.87 2z" fill="#fff"/><g fill="#009688"><path d="m24 32.5c-1.105 0-2-.894999-2-2 0-1.104999.895-2 2-2s2 .895001 2 2c0 1.105001-.895 2-2 2z"/><path d="m27.1 23.500001h-6.2v-2c0-1.71 1.39-3.1 3.1-3.1s3.1 1.39 3.1 3.1z"/></g></svg>

<svg fill="#009688" height="48" version="1.1" viewBox="0 0 48 48" width="48" xmlns="http://www.w3.org/2000/svg"><path d="M12 6C11.07 6 10.239453 6.429844 9.689453 7.089844L6.919922 10.449219C6.339922 11.149219 6 12.03 6 13L6 38C6 40.21 7.79 42 10 42L38 42C40.21 42 42 40.21 42 38L42 13C42 12.03 41.659844 11.149219 41.089844 10.449219L38.320312 7.089844C37.760312 6.429844 36.93 6 36 6L12 6zM24 16.5C26.76 16.5 29 18.739999 29 21.5L29 23.5 30 23.5C31.105 23.5 32 24.395 32 25.5L32 35.5C32 36.605 31.105 37.5 30 37.5L18 37.5C16.895 37.5 16 36.605 16 35.5L16 25.5C16 24.395 16.895 23.5 18 23.5L19 23.5 19 21.5C19 18.739999 21.24 16.5 24 16.5z"/><path d="m10.25 10l1.63-2 24 0 1.87 2-27.5 0z" fill="#fff"/><text fill="#fff" x="23.966894" xml:space="preserve" y="33.6875"><tspan x="23.966894" y="33.6875"/></text><path d="m24 32.5c-1.105 0-2-.894999-2-2 0-1.104999.895-2 2-2 1.105 0 2 .895001 2 2 0 1.105001-.895 2-2 2z" fill="#009688"/><path d="m27.1 23.500001l-6.2 0 0-2c0-1.71 1.39-3.1 3.1-3.1 1.71 0 3.1 1.39 3.1 3.1l0 2z" fill="#009688"/></svg>
